img/brand_main_ttl1.svg

<svg xmlns="http://www.w3.org/2000/svg" width="280" height="76" fill="none" xmlns:v="https://vecta.io/nano"><path d="M29.376 35.208V31.05H45.36c1.458 0 2.106-.756 2.106-2.43s-.648-2.43-2.106-2.43H11.232v-7.776h33.804c1.458 0 2.106-.756 2.106-2.43s-.648-2.43-2.106-2.43H8.694c-1.89 0-2.808.756-2.808 2.7v12.258c0 1.782.918 2.538 2.808 2.538h15.174v4.158H4.698c-1.458 0-2.16.81-2.16 2.538s.702 2.484 2.16 2.484H48.6c1.512 0 2.16-.756 2.16-2.484s-.648-2.538-2.16-2.538H29.376zm-14.202 8.478c-6.426 0-9.99 3.618-9.99 9.342s3.564 9.288 9.99 9.288h23.004c6.426 0 9.936-3.564 9.936-9.288s-3.51-9.342-9.936-9.342H15.174zm.702 13.824c-3.456 0-5.4-1.512-5.4-4.482 0-3.078 1.944-4.482 5.4-4.482H37.53c3.348 0 5.346 1.512 5.346 4.482s-1.998 4.482-5.346 4.482H15.876zm82.203-45.09c-1.728 0-2.646.756-2.646 2.376v44.82c0 1.674.864 2.376 2.646 2.376s2.592-.702 2.592-2.376v-44.82c0-1.62-.864-2.376-2.592-2.376zm-10.476.27c-1.728 0-2.646.702-2.646 2.376v16.848h-8.208c-1.62 0-2.484.918-2.484 2.538s.864 2.538 2.484 2.538h8.208V59.4c0 1.674.918 2.376 2.646 2.376s2.592-.702 2.592-2.376V15.066c0-1.674-.918-2.376-2.592-2.376zm-25.65 42.66V15.552c0-1.62-.864-2.376-2.7-2.376s-2.7.756-2.7 2.376v42.336c0 1.728.756 2.43 2.43 2.43h18.9c1.512 0 2.106-.756 2.106-2.43 0-1.728-.594-2.538-2.106-2.538h-15.93zm74.967-22.518c-1.566 0-2.376.702-2.376 2.106v24.408c0 1.404.81 2.106 2.376 2.106s2.376-.702 2.376-2.106V34.938c0-1.404-.81-2.106-2.376-2.106zm-7.938.324c-1.566 0-2.322.702-2.322 2.106v8.694h-2.97v-3.888c0-3.24-2.16-6.426-7.668-6.426s-7.668 3.186-7.668 6.426v14.31c0 3.24 2.16 6.426 7.668 6.426s7.668-3.186 7.668-6.426v-5.886h2.97v10.53c0 1.404.756 2.106 2.322 2.106s2.322-.702 2.322-2.106v-23.76c0-1.404-.756-2.106-2.322-2.106zm-9.936 20.358c0 1.728-1.08 2.97-3.024 2.97s-3.024-1.242-3.024-2.97V40.932c0-1.728 1.08-2.97 3.024-2.97s3.024 1.242 3.024 2.97v12.582zm49.853-41.094c-1.836 0-2.538.756-2.538 2.376v17.28h-4.968c-1.458 0-2.106.648-2.106 2.376s.648 2.376 2.106 2.376h4.968v22.788c0 1.62.702 2.376 2.538 2.376s2.538-.756 2.538-2.376v-44.82c0-1.62-.702-2.376-2.538-2.376zm-13.014 3.186c0-1.62-.702-2.376-2.538-2.376s-2.538.756-2.538 2.376V42.93l-7.182 13.878c-.756 1.458-.594 2.538 1.026 3.402 1.566.81 2.538.378 3.294-1.08l5.4-10.422 5.4 10.422c.756 1.458 1.728 1.89 3.294 1.08 1.62-.864 1.782-1.944 1.026-3.402l-7.182-13.878V15.606zm56.86 17.118V14.796c0-1.62-.702-2.376-2.538-2.376s-2.538.756-2.538 2.376v44.82c0 1.62.702 2.376 2.538 2.376s2.538-.756 2.538-2.376v-22.14h2.16c1.458 0 2.106-.648 2.106-2.376s-.648-2.376-2.106-2.376h-2.16zm-25.002-19.332c-1.674 0-2.43.756-2.43 2.484v42.228c0 1.728.756 2.484 2.43 2.484h12.96c1.674 0 2.43-.756 2.43-2.484V15.876c0-1.728-.756-2.484-2.43-2.484h-12.96zm2.538 42.66V17.928h7.884v38.124h-7.884zm29.937-22.032c-1.134 1.134-1.242 2.214.108 3.456 1.296 1.242 2.322 1.08 3.564-.162l8.046-8.316 8.046 8.316c1.242 1.242 2.268 1.404 3.564.162 1.35-1.242 1.242-2.322.108-3.456l-9.18-9.504V18.09h7.398c1.458 0 2.106-.648 2.106-2.322 0-1.728-.648-2.376-2.106-2.376H222c-1.458 0-2.106.648-2.106 2.376 0 1.674.648 2.322 2.106 2.322h7.398v6.426l-9.18 9.504zm-1.08 9.072c-1.458 0-2.106.648-2.106 2.376s.648 2.376 2.106 2.376h10.26v11.772c0 1.62.702 2.376 2.538 2.376s2.538-.756 2.538-2.376V47.844h10.26c1.458 0 2.106-.648 2.106-2.376s-.648-2.376-2.106-2.376h-25.596zm39.79-11.178l5.562 7.668c.918 1.242 1.998 1.512 3.402.432 1.512-1.134 1.566-2.214.594-3.51l-7.02-9.45V20.79h5.076c1.458 0 2.106-.648 2.106-2.322 0-1.728-.648-2.376-2.106-2.376h-5.022v-2.376c0-1.62-.702-2.376-2.592-2.376s-2.592.756-2.592 2.376v2.376h-5.022c-1.458 0-2.106.648-2.106 2.376 0 1.674.648 2.322 2.106 2.322h5.076v6.264l-7.02 9.45c-.864 1.35-.972 2.43.594 3.51 1.404 1.08 2.43.756 3.402-.432l5.562-7.668zm16.524 16.848c1.836 0 2.538-.756 2.538-2.376v-31.59c0-1.62-.702-2.376-2.538-2.376s-2.538.756-2.538 2.376v31.59c0 1.62.702 2.376 2.538 2.376zm-17.658 8.586V46.764c0-1.62-.702-2.376-2.538-2.376-1.782 0-2.484.756-2.484 2.376v12.744c0 1.728.756 2.484 2.538 2.484h21.384c1.458 0 2.106-.648 2.106-2.322s-.648-2.322-2.106-2.322h-18.9zM31.158 99.058c-1.836 0-2.43.918-2.43 2.322v12.042h-3.564V101.65c0-1.404-.54-2.322-2.376-2.322s-2.376.918-2.376 2.322v33.21c0 1.404.54 2.322 2.376 2.322s2.376-.918 2.376-2.322v-16.794h3.564v17.064c0 1.404.594 2.322 2.43 2.322s2.43-.918 2.43-2.322v-33.75c0-1.404-.594-2.322-2.43-2.322zM8.586 131.836v-29.268c0-1.566-.756-2.322-2.484-2.322s-2.484.756-2.484 2.322v31.428c0 1.458.81 2.376 2.376 2.376h10.422c1.296 0 1.944-.648 1.944-2.268s-.648-2.268-1.944-2.268h-7.83zm56.683-12.204v-8.802c0-1.404-.864-2.106-2.43-2.106s-2.43.702-2.43 2.106v24.408c0 1.404.864 2.106 2.43 2.106s2.43-.702 2.43-2.106v-11.07h2.43c1.296 0 1.89-.756 1.89-2.268s-.594-2.268-1.89-2.268h-2.43zm-24.624-9.45c-1.134 0-1.998.432-1.998 2.16 0 1.674.864 2.16 1.998 2.16h10.26l-9.18 19.116c-.756 1.566.162 2.43 1.404 2.862 1.62.54 2.322-.054 3.186-1.89l9.99-20.79c.972-1.998-.162-3.618-2.106-3.618H40.645zm84.033-7.884v21.924c0 2.052 1.134 2.97 3.456 2.97s3.456-.918 3.456-2.97V90.904c0-1.998-1.134-2.97-3.456-2.97s-3.456.972-3.456 2.97v4.86h-1.62c-2.214 0-3.294 1.242-3.294 3.24s1.08 3.294 3.294 3.294h1.62zm-16.254 7.614c5.94 0 9.774-3.78 9.774-10.638 0-6.804-3.618-10.53-9.774-10.53h-11.61c-5.832 0-9.774 3.402-9.774 10.53 0 7.182 4.158 10.638 9.774 10.638h11.61zm-.972-15.282c2.538 0 4.05 1.836 4.05 4.644 0 2.862-1.512 4.752-4.05 4.752h-9.666c-2.592 0-4.05-1.89-4.05-4.752 0-2.808 1.458-4.644 4.05-4.644h9.666zm-8.046 29.538c0 2.052 1.134 2.97 3.456 2.97s3.456-.918 3.456-2.97V119.2h13.986c1.944 0 2.754-.972 2.754-3.132s-.81-3.132-2.754-3.132H87.796c-1.944 0-2.754.972-2.754 3.132s.81 3.132 2.754 3.132h11.61v4.968zm-1.998 7.938v-6.102c0-2.052-1.134-3.024-3.51-3.024-2.214 0-3.348.972-3.348 3.024v9.288c0 2.16.972 3.186 3.24 3.186h35.748c1.944 0 2.754-1.08 2.754-3.186 0-2.16-.81-3.186-2.754-3.186h-32.13zm59.94-38.34v-4.86c0-2.052-1.08-3.078-3.348-3.078-2.214 0-3.294 1.026-3.294 3.078v4.86h-10.098c-1.944 0-2.754 1.08-2.754 3.024 0 2.106.81 3.132 2.754 3.132h26.73c1.998 0 2.808-1.026 2.808-3.132 0-1.944-.81-3.024-2.808-3.024h-9.99zm23.976 13.662v-16.47c0-1.998-1.134-3.024-3.402-3.024s-3.402 1.026-3.402 3.024v44.388c0 2.052 1.134 3.024 3.402 3.024s3.402-.972 3.402-3.024v-21.33h5.13c1.944 0 2.754-1.134 2.754-3.348 0-2.16-.81-3.24-2.754-3.24h-5.13zm-27.216-5.562c-7.452 0-14.472 3.51-14.472 13.824v7.83c0 10.314 7.02 13.77 14.472 13.77 7.506 0 14.472-3.456 14.472-13.77v-7.83c0-10.314-6.966-13.824-14.472-13.824zm7.83 21.276c0 6.21-3.888 7.992-7.83 7.992s-7.83-1.782-7.83-7.992v-7.074c0-6.264 3.888-7.992 7.83-7.992s7.83 1.728 7.83 7.992v7.074zm57.726-23.436c-2.214 0-3.294 1.242-3.294 3.24s1.08 3.294 3.294 3.294h10.476v14.472c0 2.052 1.134 2.97 3.456 2.97 2.376 0 3.456-.918 3.456-2.97V90.904c0-1.998-1.134-2.97-3.456-2.97-2.268 0-3.456.972-3.456 2.97v8.802h-10.476zm2.754 14.148c0-2.052-.81-3.132-2.754-3.132h-20.142V95.764h18.9c1.944 0 2.754-1.026 2.754-3.078 0-2.106-.81-3.132-2.754-3.132h-22.68c-2.16 0-3.132.972-3.132 3.132v21.33c0 1.998.972 2.97 3.132 2.97h23.922c1.944 0 2.754-1.026 2.754-3.132zm-19.548 18.198v-8.802c0-2.052-1.134-3.024-3.51-3.024-2.214 0-3.348.972-3.348 3.024v11.772c0 2.268 1.08 3.402 3.51 3.402h35.91c1.944 0 2.754-1.08 2.754-3.186 0-2.16-.81-3.186-2.754-3.186H202.87zm98.132-44.118c-2.214 0-3.348 1.026-3.348 3.024v16.308h-3.834V91.282c0-2.052-1.188-3.024-3.348-3.024s-3.348.972-3.348 3.024v43.848c0 2.052 1.134 3.024 3.348 3.024s3.348-.972 3.348-3.024v-21.384h3.834v21.6c0 2.052 1.08 3.024 3.348 3.024s3.294-.972 3.294-3.024V90.958c0-1.998-1.08-3.024-3.294-3.024zm-21.438.81c-2.106 0-3.348.972-3.348 3.186v13.986h-9.828V91.93c0-2.214-1.242-3.186-3.348-3.186s-3.348.972-3.348 3.186v41.958c0 2.16.972 3.132 3.132 3.132h17.01c2.106 0 3.078-.972 3.078-3.132V91.93c0-2.214-1.188-3.186-3.348-3.186zm-13.176 23.22h9.828v18.954h-9.828v-18.954zm80.784-3.996c5.778 0 9.99-2.754 9.99-9.612 0-6.804-4.212-9.504-9.936-9.504h-23.76c-5.67 0-9.936 2.7-9.936 9.504 0 6.858 4.266 9.612 9.936 9.612h23.706zm-.054-12.906c2.268 0 3.348 1.458 3.348 3.294 0 1.89-1.08 3.402-3.348 3.402h-23.49c-2.322 0-3.402-1.512-3.402-3.402 0-1.836 1.08-3.294 3.402-3.294h23.49zm-33.588 15.606c-1.944 0-2.808 1.08-2.808 3.24s.864 3.132 2.808 3.132h18.414v3.888H317.04c-2.106 0-3.078.972-3.078 3.132v11.124c0 2.16.972 3.186 3.078 3.186h36.666c2.16 0 3.078-1.026 3.078-3.186V124.06c0-2.16-.918-3.132-3.078-3.132h-14.958v-3.888h18.414c1.998 0 2.808-.972 2.808-3.132s-.81-3.24-2.808-3.24H313.53zm7.128 21.654v-5.346h29.43v5.346h-29.43z" fill="#212121"/></svg>

<svg width="280" height="76" viewBox="0 0 280 76" fill="none" xmlns="http://www.w3.org/2000/svg">
<path d="M29.376 35.208V31.05H45.36C46.818 31.05 47.466 30.294 47.466 28.62C47.466 26.946 46.818 26.19 45.36 26.19H11.232V18.414H45.036C46.494 18.414 47.142 17.658 47.142 15.984C47.142 14.31 46.494 13.554 45.036 13.554H8.694C6.804 13.554 5.886 14.31 5.886 16.254V28.512C5.886 30.294 6.804 31.05 8.694 31.05H23.868V35.208H4.698C3.24 35.208 2.538 36.018 2.538 37.746C2.538 39.474 3.24 40.23 4.698 40.23H48.6C50.112 40.23 50.76 39.474 50.76 37.746C50.76 36.018 50.112 35.208 48.6 35.208H29.376ZM15.174 43.686C8.748 43.686 5.184 47.304 5.184 53.028C5.184 58.752 8.748 62.316 15.174 62.316H38.178C44.604 62.316 48.114 58.752 48.114 53.028C48.114 47.304 44.604 43.686 38.178 43.686H15.174ZM15.876 57.51C12.42 57.51 10.476 55.998 10.476 53.028C10.476 49.95 12.42 48.546 15.876 48.546H37.53C40.878 48.546 42.876 50.058 42.876 53.028C42.876 55.998 40.878 57.51 37.53 57.51H15.876ZM98.0792 12.42C96.3512 12.42 95.4332 13.176 95.4332 14.796V59.616C95.4332 61.29 96.2972 61.992 98.0792 61.992C99.8612 61.992 100.671 61.29 100.671 59.616V14.796C100.671 13.176 99.8072 12.42 98.0792 12.42ZM87.6032 12.69C85.8752 12.69 84.9572 13.392 84.9572 15.066V31.914H76.7492C75.1292 31.914 74.2652 32.832 74.2652 34.452C74.2652 36.072 75.1292 36.99 76.7492 36.99H84.9572V59.4C84.9572 61.074 85.8752 61.776 87.6032 61.776C89.3312 61.776 90.1952 61.074 90.1952 59.4V15.066C90.1952 13.392 89.2772 12.69 87.6032 12.69ZM61.9532 55.35V15.552C61.9532 13.932 61.0892 13.176 59.2532 13.176C57.4172 13.176 56.5532 13.932 56.5532 15.552V57.888C56.5532 59.616 57.3092 60.318 58.9832 60.318H77.8832C79.3952 60.318 79.9892 59.562 79.9892 57.888C79.9892 56.16 79.3952 55.35 77.8832 55.35H61.9532ZM136.92 32.832C135.354 32.832 134.544 33.534 134.544 34.938V59.346C134.544 60.75 135.354 61.452 136.92 61.452C138.486 61.452 139.296 60.75 139.296 59.346V34.938C139.296 33.534 138.486 32.832 136.92 32.832ZM128.982 33.156C127.416 33.156 126.66 33.858 126.66 35.262V43.956H123.69V40.068C123.69 36.828 121.53 33.642 116.022 33.642C110.514 33.642 108.354 36.828 108.354 40.068V54.378C108.354 57.618 110.514 60.804 116.022 60.804C121.53 60.804 123.69 57.618 123.69 54.378V48.492H126.66V59.022C126.66 60.426 127.416 61.128 128.982 61.128C130.548 61.128 131.304 60.426 131.304 59.022V35.262C131.304 33.858 130.548 33.156 128.982 33.156ZM119.046 53.514C119.046 55.242 117.966 56.484 116.022 56.484C114.078 56.484 112.998 55.242 112.998 53.514V40.932C112.998 39.204 114.078 37.962 116.022 37.962C117.966 37.962 119.046 39.204 119.046 40.932V53.514ZM168.899 12.42C167.063 12.42 166.361 13.176 166.361 14.796V32.076H161.393C159.935 32.076 159.287 32.724 159.287 34.452C159.287 36.18 159.935 36.828 161.393 36.828H166.361V59.616C166.361 61.236 167.063 61.992 168.899 61.992C170.735 61.992 171.437 61.236 171.437 59.616V14.796C171.437 13.176 170.735 12.42 168.899 12.42ZM155.885 15.606C155.885 13.986 155.183 13.23 153.347 13.23C151.511 13.23 150.809 13.986 150.809 15.606V42.93L143.627 56.808C142.871 58.266 143.033 59.346 144.653 60.21C146.219 61.02 147.191 60.588 147.947 59.13L153.347 48.708L158.747 59.13C159.503 60.588 160.475 61.02 162.041 60.21C163.661 59.346 163.823 58.266 163.067 56.808L155.885 42.93V15.606ZM212.745 32.724V14.796C212.745 13.176 212.043 12.42 210.207 12.42C208.371 12.42 207.669 13.176 207.669 14.796V59.616C207.669 61.236 208.371 61.992 210.207 61.992C212.043 61.992 212.745 61.236 212.745 59.616V37.476H214.905C216.363 37.476 217.011 36.828 217.011 35.1C217.011 33.372 216.363 32.724 214.905 32.724H212.745ZM187.743 13.392C186.069 13.392 185.313 14.148 185.313 15.876V58.104C185.313 59.832 186.069 60.588 187.743 60.588H200.703C202.377 60.588 203.133 59.832 203.133 58.104V15.876C203.133 14.148 202.377 13.392 200.703 13.392H187.743ZM190.281 56.052V17.928H198.165V56.052H190.281ZM220.218 34.02C219.084 35.154 218.976 36.234 220.326 37.476C221.622 38.718 222.648 38.556 223.89 37.314L231.936 28.998L239.982 37.314C241.224 38.556 242.25 38.718 243.546 37.476C244.896 36.234 244.788 35.154 243.654 34.02L234.474 24.516V18.09H241.872C243.33 18.09 243.978 17.442 243.978 15.768C243.978 14.04 243.33 13.392 241.872 13.392H222C220.542 13.392 219.894 14.04 219.894 15.768C219.894 17.442 220.542 18.09 222 18.09H229.398V24.516L220.218 34.02ZM219.138 43.092C217.68 43.092 217.032 43.74 217.032 45.468C217.032 47.196 217.68 47.844 219.138 47.844H229.398V59.616C229.398 61.236 230.1 61.992 231.936 61.992C233.772 61.992 234.474 61.236 234.474 59.616V47.844H244.734C246.192 47.844 246.84 47.196 246.84 45.468C246.84 43.74 246.192 43.092 244.734 43.092H219.138ZM258.928 31.914L264.49 39.582C265.408 40.824 266.488 41.094 267.892 40.014C269.404 38.88 269.458 37.8 268.486 36.504L261.466 27.054V20.79H266.542C268 20.79 268.648 20.142 268.648 18.468C268.648 16.74 268 16.092 266.542 16.092H261.52V13.716C261.52 12.096 260.818 11.34 258.928 11.34C257.038 11.34 256.336 12.096 256.336 13.716V16.092H251.314C249.856 16.092 249.208 16.74 249.208 18.468C249.208 20.142 249.856 20.79 251.314 20.79H256.39V27.054L249.37 36.504C248.506 37.854 248.398 38.934 249.964 40.014C251.368 41.094 252.394 40.77 253.366 39.582L258.928 31.914ZM275.452 48.762C277.288 48.762 277.99 48.006 277.99 46.386V14.796C277.99 13.176 277.288 12.42 275.452 12.42C273.616 12.42 272.914 13.176 272.914 14.796V46.386C272.914 48.006 273.616 48.762 275.452 48.762ZM257.794 57.348V46.764C257.794 45.144 257.092 44.388 255.256 44.388C253.474 44.388 252.772 45.144 252.772 46.764V59.508C252.772 61.236 253.528 61.992 255.31 61.992H276.694C278.152 61.992 278.8 61.344 278.8 59.67C278.8 57.996 278.152 57.348 276.694 57.348H257.794ZM31.158 99.058C29.322 99.058 28.728 99.976 28.728 101.38V113.422H25.164V101.65C25.164 100.246 24.624 99.328 22.788 99.328C20.952 99.328 20.412 100.246 20.412 101.65V134.86C20.412 136.264 20.952 137.182 22.788 137.182C24.624 137.182 25.164 136.264 25.164 134.86V118.066H28.728V135.13C28.728 136.534 29.322 137.452 31.158 137.452C32.994 137.452 33.588 136.534 33.588 135.13V101.38C33.588 99.976 32.994 99.058 31.158 99.058ZM8.586 131.836V102.568C8.586 101.002 7.83 100.246 6.102 100.246C4.374 100.246 3.618 101.002 3.618 102.568V133.996C3.618 135.454 4.428 136.372 5.994 136.372H16.416C17.712 136.372 18.36 135.724 18.36 134.104C18.36 132.484 17.712 131.836 16.416 131.836H8.586ZM65.2691 119.632V110.83C65.2691 109.426 64.4051 108.724 62.8391 108.724C61.2731 108.724 60.4091 109.426 60.4091 110.83V135.238C60.4091 136.642 61.2731 137.344 62.8391 137.344C64.4051 137.344 65.2691 136.642 65.2691 135.238V124.168H67.6991C68.9951 124.168 69.5891 123.412 69.5891 121.9C69.5891 120.388 68.9951 119.632 67.6991 119.632H65.2691ZM40.6451 110.182C39.5111 110.182 38.6471 110.614 38.6471 112.342C38.6471 114.016 39.5111 114.502 40.6451 114.502H50.9051L41.7251 133.618C40.9691 135.184 41.8871 136.048 43.1291 136.48C44.7491 137.02 45.4511 136.426 46.3151 134.59L56.3051 113.8C57.2771 111.802 56.1431 110.182 54.1991 110.182H40.6451ZM124.678 102.298V124.222C124.678 126.274 125.812 127.192 128.134 127.192C130.456 127.192 131.59 126.274 131.59 124.222V90.904C131.59 88.906 130.456 87.934 128.134 87.934C125.812 87.934 124.678 88.906 124.678 90.904V95.764H123.058C120.844 95.764 119.764 97.006 119.764 99.004C119.764 101.002 120.844 102.298 123.058 102.298H124.678ZM108.424 109.912C114.364 109.912 118.198 106.132 118.198 99.274C118.198 92.47 114.58 88.744 108.424 88.744H96.8136C90.9816 88.744 87.0396 92.146 87.0396 99.274C87.0396 106.456 91.1976 109.912 96.8136 109.912H108.424ZM107.452 94.63C109.99 94.63 111.502 96.466 111.502 99.274C111.502 102.136 109.99 104.026 107.452 104.026H97.7856C95.1936 104.026 93.7356 102.136 93.7356 99.274C93.7356 96.466 95.1936 94.63 97.7856 94.63H107.452ZM99.4056 124.168C99.4056 126.22 100.54 127.138 102.862 127.138C105.184 127.138 106.318 126.22 106.318 124.168V119.2H120.304C122.248 119.2 123.058 118.228 123.058 116.068C123.058 113.908 122.248 112.936 120.304 112.936H87.7956C85.8516 112.936 85.0416 113.908 85.0416 116.068C85.0416 118.228 85.8516 119.2 87.7956 119.2H99.4056V124.168ZM97.4076 132.106V126.004C97.4076 123.952 96.2736 122.98 93.8976 122.98C91.6836 122.98 90.5496 123.952 90.5496 126.004V135.292C90.5496 137.452 91.5216 138.478 93.7896 138.478H129.538C131.482 138.478 132.292 137.398 132.292 135.292C132.292 133.132 131.482 132.106 129.538 132.106H97.4076ZM157.348 93.766V88.906C157.348 86.854 156.268 85.828 154 85.828C151.786 85.828 150.706 86.854 150.706 88.906V93.766H140.608C138.664 93.766 137.854 94.846 137.854 96.79C137.854 98.896 138.664 99.922 140.608 99.922H167.338C169.336 99.922 170.146 98.896 170.146 96.79C170.146 94.846 169.336 93.766 167.338 93.766H157.348ZM181.324 107.428V90.958C181.324 88.96 180.19 87.934 177.922 87.934C175.654 87.934 174.52 88.96 174.52 90.958V135.346C174.52 137.398 175.654 138.37 177.922 138.37C180.19 138.37 181.324 137.398 181.324 135.346V114.016H186.454C188.398 114.016 189.208 112.882 189.208 110.668C189.208 108.508 188.398 107.428 186.454 107.428H181.324ZM154.108 101.866C146.656 101.866 139.636 105.376 139.636 115.69V123.52C139.636 133.834 146.656 137.29 154.108 137.29C161.614 137.29 168.58 133.834 168.58 123.52V115.69C168.58 105.376 161.614 101.866 154.108 101.866ZM161.938 123.142C161.938 129.352 158.05 131.134 154.108 131.134C150.166 131.134 146.278 129.352 146.278 123.142V116.068C146.278 109.804 150.166 108.076 154.108 108.076C158.05 108.076 161.938 109.804 161.938 116.068V123.142ZM219.664 99.706C217.45 99.706 216.37 100.948 216.37 102.946C216.37 104.944 217.45 106.24 219.664 106.24H230.14V120.712C230.14 122.764 231.274 123.682 233.596 123.682C235.972 123.682 237.052 122.764 237.052 120.712V90.904C237.052 88.906 235.918 87.934 233.596 87.934C231.328 87.934 230.14 88.906 230.14 90.904V99.706H219.664ZM222.418 113.854C222.418 111.802 221.608 110.722 219.664 110.722H199.522V95.764H218.422C220.366 95.764 221.176 94.738 221.176 92.686C221.176 90.58 220.366 89.554 218.422 89.554H195.742C193.582 89.554 192.61 90.526 192.61 92.686V114.016C192.61 116.014 193.582 116.986 195.742 116.986H219.664C221.608 116.986 222.418 115.96 222.418 113.854ZM202.87 132.052V123.25C202.87 121.198 201.736 120.226 199.36 120.226C197.146 120.226 196.012 121.198 196.012 123.25V135.022C196.012 137.29 197.092 138.424 199.522 138.424H235.432C237.376 138.424 238.186 137.344 238.186 135.238C238.186 133.078 237.376 132.052 235.432 132.052H202.87ZM301.002 87.934C298.788 87.934 297.654 88.96 297.654 90.958V107.266H293.82V91.282C293.82 89.23 292.632 88.258 290.472 88.258C288.312 88.258 287.124 89.23 287.124 91.282V135.13C287.124 137.182 288.258 138.154 290.472 138.154C292.686 138.154 293.82 137.182 293.82 135.13V113.746H297.654V135.346C297.654 137.398 298.734 138.37 301.002 138.37C303.27 138.37 304.296 137.398 304.296 135.346V90.958C304.296 88.96 303.216 87.934 301.002 87.934ZM279.564 88.744C277.458 88.744 276.216 89.716 276.216 91.93V105.916H266.388V91.93C266.388 89.716 265.146 88.744 263.04 88.744C260.934 88.744 259.692 89.716 259.692 91.93V133.888C259.692 136.048 260.664 137.02 262.824 137.02H279.834C281.94 137.02 282.912 136.048 282.912 133.888V91.93C282.912 89.716 281.724 88.744 279.564 88.744ZM266.388 111.964H276.216V130.918H266.388V111.964ZM347.172 107.968C352.95 107.968 357.162 105.214 357.162 98.356C357.162 91.552 352.95 88.852 347.226 88.852H323.466C317.796 88.852 313.53 91.552 313.53 98.356C313.53 105.214 317.796 107.968 323.466 107.968H347.172ZM347.118 95.062C349.386 95.062 350.466 96.52 350.466 98.356C350.466 100.246 349.386 101.758 347.118 101.758H323.628C321.306 101.758 320.226 100.246 320.226 98.356C320.226 96.52 321.306 95.062 323.628 95.062H347.118ZM313.53 110.668C311.586 110.668 310.722 111.748 310.722 113.908C310.722 116.068 311.586 117.04 313.53 117.04H331.944V120.928H317.04C314.934 120.928 313.962 121.9 313.962 124.06V135.184C313.962 137.344 314.934 138.37 317.04 138.37H353.706C355.866 138.37 356.784 137.344 356.784 135.184V124.06C356.784 121.9 355.866 120.928 353.706 120.928H338.748V117.04H357.162C359.16 117.04 359.97 116.068 359.97 113.908C359.97 111.748 359.16 110.668 357.162 110.668H313.53ZM320.658 132.322V126.976H350.088V132.322H320.658Z" fill="#212121"/>
</svg>
